pro/src/icons/full-trash.svg

<svg width="48" height="48" viewBox="0 0 48 48" xmlns="http://www.w3.org/2000/svg">
<g id="icon">
  <path d="M11 11.1H37C37.55 11.1 38 10.65 38 10.1V8.38C38 7.83 37.55 7.38 37 7.38H11C10.45 7.38 10 7.83 10 8.38V10.1C10 10.65 10.45 11.1 11 11.1Z" fill="currentColor"/>
  <path d="M31 10.9984H17V6.99947C17 5.89976 17.9 5 19 5H29C30.1 5 31 5.89976 31 6.99947V10.9984Z" fill="currentColor"/>
  <path fill-rule="evenodd" clip-rule="evenodd" d="M35.26 41.1205L36.88 15.1173C36.94 13.9676 36.03 12.9979 34.88 12.9979H13.12C11.97 12.9979 11.06 13.9676 11.12 15.1173L12.74 41.1205C12.81 42.1802 13.68 43 14.74 43H33.26C34.32 43 35.19 42.1702 35.26 41.1205ZM25.27 17.8866C25.27 17.3345 24.8223 16.8869 24.27 16.8869C23.7177 16.8869 23.27 17.3345 23.27 17.8866V38.9111C23.27 39.4632 23.7177 39.9108 24.27 39.9108C24.8223 39.9108 25.27 39.4632 25.27 38.9111V17.8866ZM17.2225 16.888C17.7742 16.8618 18.2427 17.2876 18.2689 17.8392L19.2689 38.8636C19.2951 39.4151 18.8692 39.8835 18.3175 39.9097C17.7659 39.9359 17.2974 39.5101 17.2712 38.9586L16.2712 17.9341C16.2449 17.3826 16.6709 16.9143 17.2225 16.888ZM32.2689 17.9341C32.2951 17.3826 31.8692 16.9143 31.3175 16.888C30.7659 16.8618 30.2974 17.2876 30.2712 17.8392L29.2712 38.8636C29.2449 39.4151 29.6709 39.8835 30.2225 39.9097C30.7742 39.9359 31.2427 39.5101 31.2689 38.9586L32.2689 17.9341Z" fill="currentColor"/>
</g>
</svg>

<svg xmlns="http://www.w3.org/2000/svg" width="48" height="48"><g id="icon" fill="currentColor"><path d="M11 11.1h26c.55 0 1-.45 1-1V8.38c0-.55-.45-1-1-1H11c-.55 0-1 .45-1 1v1.72c0 .55.45 1 1 1"/><path d="M31 10.998H17V7C17 5.9 17.9 5 19 5h10c1.1 0 2 .9 2 2z"/><path fill-rule="evenodd" d="m35.26 41.12 1.62-26.003c.06-1.15-.85-2.12-2-2.12H13.12c-1.15 0-2.06.97-2 2.12l1.62 26.004c.07 1.06.94 1.879 2 1.879h18.52c1.06 0 1.93-.83 2-1.88m-9.99-23.233a1 1 0 0 0-2 0V38.91a1 1 0 0 0 2 0zm-8.047-.999a1 1 0 0 1 1.046.951l1 21.025a1 1 0 0 1-1.998.095l-1-21.025a1 1 0 0 1 .951-1.046m15.046 1.046a1 1 0 0 0-1.998-.095l-1 21.025a1 1 0 0 0 1.998.095z" clip-rule="evenodd"/></g></svg>
